web/packages/design/src/ResourceIcon/assets/eventbrite.svg

<svg width="72" height="72" viewBox="0 0 72 72" fill="none" xmlns="http://www.w3.org/2000/svg">
<g clip-path="url(#clip0_15940_7348)">
<path fill-rule="evenodd" clip-rule="evenodd" d="M31.6285 17.3938C39.5887 15.5914 47.5313 18.8564 51.9516 25.029L16.7776 32.9893C17.9891 25.5432 23.6682 19.1962 31.6285 17.3938ZM52.1496 46.6759C49.3681 50.7038 45.1677 53.5322 40.3895 54.5948C32.382 56.4061 24.3863 53.0879 19.9806 46.8355L55.2669 38.8516L61.014 37.5515L72 35.0635C71.933 32.7032 71.6261 30.3559 71.084 28.0577C66.6134 9.07011 47.283 -2.76979 27.9143 1.61218C8.53668 5.99711 -3.54257 24.9463 0.93101 43.9339C5.40459 62.9214 24.732 74.7584 44.1037 70.3764C55.521 67.7939 64.4002 60.1528 68.8531 50.4315L52.1467 46.6789L52.1496 46.6759Z" fill="#F05537"/>
</g>
<defs>
<clipPath id="clip0_15940_7348">
<rect width="72" height="72" fill="white" transform="translate(0 0.000488281)"/>
</clipPath>
</defs>
</svg>

<svg xmlns="http://www.w3.org/2000/svg" width="72" height="72" fill="none" viewBox="0 0 72 72"><g clip-path="url(#a)"><path fill="#f05537" fill-rule="evenodd" d="M31.629 17.394c7.96-1.803 15.902 1.462 20.323 7.635l-35.174 7.96c1.211-7.446 6.89-13.793 14.85-15.595m20.52 29.282a19.4 19.4 0 0 1-11.76 7.919c-8.007 1.811-16.003-1.507-20.408-7.76l35.286-7.983 5.747-1.3L72 35.063a35 35 0 0 0-.916-7.005C66.614 9.07 47.283-2.77 27.914 1.612 8.537 5.997-3.543 24.946.931 43.934 5.405 62.92 24.732 74.758 44.104 70.376 55.52 67.794 64.4 60.153 68.854 50.431L52.146 46.68z" clip-rule="evenodd"/></g><defs><clipPath id="a"><path fill="#fff" d="M0 0h72v72H0z"/></clipPath></defs></svg>
